X:0086
T:Quick Step 37th Regt.
M:6/8
L:1/8
Q:3/8=84
I: :: :: :: ::
N:final d's in first three parts are left undotted in the book
Z:Jack Campin * www.campin.me.uk * 2009
K:D
 dfa   g2e | f2d   ceA |dfa geg|fac d3:|
 BdB   Ace | dfd   cea |BdB Afa|gec d3:|
 a2g   dfa | g2e   cAc |BdB Afa|gec d3:|
.B.Bd .A.Ad|.e.eg .f.fa|BdB Afa|gec d3:|

